X:1
T:Title
%%score { 1 | ( 2 3 ) }
L:1/8
M:4/4
K:Db
V:1 treble nm="Grand Piano"
V:2 bass 
V:3 bass 
V:1
 z4 z2[Q:1/4=108] [DF][EG] | [FA]2 [Fd]2 [Gc]2 cd | e2 [CG]2 [DF]2 [DF][CE] | D2 EF G2 [CA]2 | %4
[M:3/4] [DF]6 |[M:1/4] [DF][EG] |[M:4/4] [FA]2 [Fd]2 [Gc]2 cd | e2 _f2 [F=f]2 [Af][Af] | %8
 [Ae]2 dc [=DAc]2 [_D=GB]2 |[M:9/8] [CA]6- [CA] z z |[M:4/4] [Fd]2 z2 [Gc]2 z [CGB] | %11
 [DFA]2 F2 z2 FF | A2 G2 [DF]2 [CE]2 | [DF]6 z2 | [Fd]2 z2 [_Fc]2 z [CFB] | %15
 [CFA]2 [A,CF]2 z2 [CFA][=DFB] | [EAc]2 [EAc]2 [DAB]2 [D=GB]2 |[M:3/4] [CA]6 |[M:1/4] [DFA][DFA] | %19
[M:4/4] [DGB]2 [DGB]2 [E=Ac]2 [CFA]2 | [Fd]2 [DFB]2 z2 BB | d2 d2 e2 A2 | f2 [Fd]4 z2 | %23
 [Fd]2 z2 c2 z B | A2 F2 z2 [FA][FA] | B2 e2 d2 [Ec]2 |[M:3/4] [Fd]6 |] %27
V:2
 z4 z2 [D,A,][D,A,] | [D,D]2 [D,A,]2 [E,A,]2[K:treble] [A,G][A,B,G] | %2
 [A,CG]2[K:bass] [A,,A,]2 [D,A,]2 [D,A,][=A,,G,] | [B,,F,B,]2 [G,B,][F,B,=D] [E,B,E]2 [A,,A,]2 | %4
[M:3/4] [D,A,]6 |[M:1/4] [D,A,][D,A,] |[M:4/4] [D,D]2 [D,A,]2 [E,A,]2[K:treble] [A,G][A,B,G] | %7
 [A,CG]2 [A,CG]2[K:bass] [D,D]2 [=D,B,][D,_C] | z2[K:treble] A2[K:bass] z4 | %9
[M:9/8][K:treble] z3 z G2- G z z |[M:4/4][K:bass] [D,A,]2 z2 [E,A,]2 z A,, | %11
 D,2 [D,A,D]2 z2 [D,A,D][D,A,D] | [A,C]2 [A,C]2 [A,,A,]2 [A,,A,]2 | [D,A,]6 z2 | %14
 [B,,B,]2 z2 [C,G,]2 z C, | F,2 F,2 z2 F,B,, | E,2 E,2 E,2 E,2 |[M:3/4] A,6 |[M:1/4] D,D, | %19
[M:4/4] G,2 G,2 F,2 F,2 | B,2 B,,2 z2[K:treble] [B,DF][B,DF] | [B,F]2 [B,F]2 [A,CG]2 [A,CG]2 | %22
 [DA]2[K:bass] [D,A,]4 z2 | [D,A,]2 z2 [G,A,E]2 z [G,A,C] | [F,A,D]2 [D,A,D]2 z2 [D,D][D,D] | %25
 [G,DG]2 [G,B,G]2 [A,F]2[K:bass] [A,,A,]2 |[M:3/4] [D,A,]6 |] %27
V:3
 x8 | x6[K:treble] x2 | x2[K:bass] x6 | x8 |[M:3/4] x6 |[M:1/4] x2 |[M:4/4] x6[K:treble] x2 | %7
 x4[K:bass] x4 | [E,C]2[K:treble] FE[K:bass] B,,2 E,2 |[M:9/8][K:treble] A,6- A, z z | %10
[M:4/4][K:bass] x8 | x8 | x8 | x8 | x8 | x8 | x8 |[M:3/4] x6 |[M:1/4] x2 |[M:4/4] x8 | %20
 x6[K:treble] x2 | x8 | x2[K:bass] x6 | x8 | x8 | x6[K:bass] x2 |[M:3/4] x6 |] %27

